X: 1
T: Blue Bonnets
M: 3/4
L: 1/8
R: waltz
K: Gmin
|: B,6 | B,3C D2 | d4 c2 | B3G F2 | BG3 G2 | G3z g2 | g3f d2 | d3c d2 | 
B,6 | B,3C D2 | \
 d4 c2 | B3G F2 | G6 | D4 F2 | GB3 D2 |1 C6 :|2 C6 | C4 CD |: B3d f2 | f
3d B2 | g3f d2 | \
 c3d c2 | B3d f2 | g3a b2 | B3c d2 | c6 | B3d f2 | f3d B2 | g3f d2 | d3c
 d2 | B3A G2 | \
 FD3 F2 | GB3 D2 |1 C4 B,2 :|2 C6 | C6 | z6 | z6 | z6 | z6 | \
K:C
|: C6 | C3D E2 | c3e d2 | c3A G2 | c/[A3/2A3/2] [A2A2] [A2A2] | [A4A4] a
2 | a3g e2 | \
 e3d e2 | C6 | C3D E2 | c3e d2 | c3A G2 | [A3A3]A AA | G/E3/2 E2 G2 | A/
c3/2 c2 E2 | \
 D6 :| c3e g2 | g3e g2 | z3g/a/ g/ea/ | d4 e/d3/2 | c3e g2 | a3b c'2 | c
3d e2 | d6 | \
 c3e g2 | g3e g2 | a3g e2 | d3e d2 | c3B A2 | G/E3/2 E2 G2 | Ac3 E2 | D4
 C2 | D6 | \
 e2 e2 c2 | C2 c2 D2 | C2 a2 f2 | a6 | \
